/* XPM */
static char * EA_texture_xpm[] = {
"128 128 21 1",
" 	c #000000",
".	c #8B8B8B",
"+	c #8D8D8D",
"@	c #7C7C7C",
"#	c #FEFEFE",
"$	c #FFFFFF",
"%	c #E1E1E1",
"&	c #EEEEEE",
"*	c #D0D0D0",
"=	c #B6B6B6",
"-	c #CBCBCB",
";	c #E9E9E9",
">	c #C4C4C4",
",	c #9F9F9F",
"'	c #D2D2D2",
")	c #DCDCDC",
"!	c #949494",
"~	c #787878",
"{	c #FAFAFA",
"]	c #F3F3F3",
"^	c #D6D6D6",
"                                                                                                                                ",
"                                                                                                                                ",
"                                                                                                                                ",
"                                                                                                                                ",
"                                                                                                                                ",
"                                                                                                                                ",
"                                                                                                                                ",
"                                                                                                                                ",
"                                                                                                                                ",
"                                                                                                                                ",
"                                                                                                                                ",
"                                                                                                                                ",
"                                                                                                                                ",
"                                                                                                                                ",
"                                                                                                                                ",
"                                                                                                                                ",
"                                                                                                                                ",
"                                                                                                                                ",
"                                                                                                                                ",
"                                                                                                                                ",
"                                                                                                                                ",
"                                                                                                                                ",
"                                                                                                                                ",
"                                                                                                                                ",
"                                                                                                                                ",
"                                                                                                                                ",
"                                                                                                                                ",
"                                                                                                                                ",
"                                                                                                                                ",
"                                                                                                                                ",
"                                                                                                                                ",
"                                                                                                                                ",
"                                                                                                                                ",
"                                                                                                                                ",
"                                                                                                                                ",
"                                                                                                                                ",
"                                                                                                                                ",
"                                                                                                                                ",
"                                                                                                                                ",
"                                                                                                                                ",
"                                                                                                                                ",
"                                                                                                                                ",
"                                                    .+++++++++++++++++++++++@                                                   ",
"                                                    #$$$$$$$$$$$$$$$$$$$$$$$%                                                   ",
"                                                    #$$$$$$$$$$$$$$$$$$$$$$$%                                                   ",
"                                                    #$$$$$$$$$$$$$$$$$$$$$$$%                                                   ",
"                                                    #$$$$$$$$$$$$$$$$$$$$$$$%                                                   ",
"                                                    #$$$$&******************=                                                   ",
"                                                    #$$$$-                                                                      ",
"                                                    #$$$$-                                                                      ",
"                                                    #$$$$-                                                                      ",
"                                                    #$$$$-                                                                      ",
"                                                    #$$$$-                                                                      ",
"                                                    #$$$$-                                                                      ",
"                                                    #$$$$-                                                                      ",
"                                                    #$$$$-                                                                      ",
"                                                    #$$$$-                                                                      ",
"                                                    #$$$$-                                                                      ",
"                                                    #$$$$-                                                                      ",
"                                                    #$$$$-                                                                      ",
"                                                    #$$$$-                                                                      ",
"                                                    #$$$$;>>>>>>>>>>>>>>>>>,                                                    ",
"                                                    #$$$$$$$$$$$$$$$$$$$$$$'                                                    ",
"                                                    #$$$$$$$$$$$$$$$$$$$$$$'                                                    ",
"                                                    #$$$$$$$$$$$$$$$$$$$$$$'                                                    ",
"                                                    #$$$$$$$$$$$$$$$$$$$$$$'                                                    ",
"                                                    #$$$$)!!!!!!!!!!!!!!!!!~                                                    ",
"                                                    #$$$$-                                                                      ",
"                                                    #$$$$-                                                                      ",
"                                                    #$$$$-                                                                      ",
"                                                    #$$$$-                                                                      ",
"                                                    #$$$$-                                                                      ",
"                                                    #$$$$-                                                                      ",
"                                                    #$$$$-                                                                      ",
"                                                    #$$$$-                                                                      ",
"                                                    #$$$$-                                                                      ",
"                                                    #$$$$-                                                                      ",
"                                                    #$$$$-                                                                      ",
"                                                    #$$$$-                                                                      ",
"                                                    #$$$$-                                                                      ",
"                                                    #$$$$-                                                                      ",
"                                                    #$$$$-                                                                      ",
"                                                    #$$$${]]]]]]]]]]]]]]]]]]^                                                   ",
"                                                    #$$$$$$$$$$$$$$$$$$$$$$$%                                                   ",
"                                                    #$$$$$$$$$$$$$$$$$$$$$$$%                                                   ",
"                                                    #$$$$$$$$$$$$$$$$$$$$$$$%                                                   ",
"                                                    #$$$$$$$$$$$$$$$$$$$$$$$%                                                   ",
"                                                                                                                                ",
"                                                                                                                                ",
"                                                                                                                                ",
"                                                                                                                                ",
"                                                                                                                                ",
"                                                                                                                                ",
"                                                                                                                                ",
"                                                                                                                                ",
"                                                                                                                                ",
"                                                                                                                                ",
"                                                                                                                                ",
"                                                                                                                                ",
"                                                                                                                                ",
"                                                                                                                                ",
"                                                                                                                                ",
"                                                                                                                                ",
"                                                                                                                                ",
"                                                                                                                                ",
"                                                                                                                                ",
"                                                                                                                                ",
"                                                                                                                                ",
"                                                                                                                                ",
"                                                                                                                                ",
"                                                                                                                                ",
"                                                                                                                                ",
"                                                                                                                                ",
"                                                                                                                                ",
"                                                                                                                                ",
"                                                                                                                                ",
"                                                                                                                                ",
"                                                                                                                                ",
"                                                                                                                                ",
"                                                                                                                                ",
"                                                                                                                                ",
"                                                                                                                                ",
"                                                                                                                                ",
"                                                                                                                                ",
"                                                                                                                                ",
"                                                                                                                                ",
"                                                                                                                                ",
"                                                                                                                                "};
