/* XPM */
static char * NO_texture_xpm[] = {
"128 128 109 2",
"  	c #000000",
". 	c #8B8B8B",
"+ 	c #8D8D8D",
"@ 	c #6A6A6A",
"# 	c #2E2E2E",
"$ 	c #FEFEFE",
"% 	c #FFFFFF",
"& 	c #F3F3F3",
"* 	c #454545",
"= 	c #5D5D5D",
"- 	c #CCCCCC",
"; 	c #898989",
"> 	c #EEEEEE",
", 	c #353535",
"' 	c #C2C2C2",
") 	c #7A7A7A",
"! 	c #E9E9E9",
"~ 	c #222222",
"{ 	c #E3E3E3",
"] 	c #F1F1F1",
"^ 	c #B6B6B6",
"/ 	c #E1E1E1",
"( 	c #909090",
"_ 	c #FBFBFB",
": 	c #6C6C6C",
"< 	c #D1D1D1",
"[ 	c #E2E2E2",
"} 	c #0D0D0D",
"| 	c #F0F0F0",
"1 	c #4D4D4D",
"2 	c #F6F6F6",
"3 	c #AAAAAA",
"4 	c #9F9F9F",
"5 	c #F9F9F9",
"6 	c #5C5C5C",
"7 	c #DBDBDB",
"8 	c #D9D9D9",
"9 	c #161616",
"0 	c #9D9D9D",
"a 	c #3D3D3D",
"b 	c #ADADAD",
"c 	c #F5F5F5",
"d 	c #4B4B4B",
"e 	c #D0D0D0",
"f 	c #565656",
"g 	c #6D6D6D",
"h 	c #FCFCFC",
"i 	c #8E8E8E",
"j 	c #606060",
"k 	c #B9B9B9",
"l 	c #3B3B3B",
"m 	c #686868",
"n 	c #262626",
"o 	c #EAEAEA",
"p 	c #C5C5C5",
"q 	c #7D7D7D",
"r 	c #7F7F7F",
"s 	c #6E6E6E",
"t 	c #C4C4C4",
"u 	c #EBEBEB",
"v 	c #383838",
"w 	c #EFEFEF",
"x 	c #BABABA",
"y 	c #8C8C8C",
"z 	c #707070",
"A 	c #CECECE",
"B 	c #E4E4E4",
"C 	c #474747",
"D 	c #F4F4F4",
"E 	c #AEAEAE",
"F 	c #9B9B9B",
"G 	c #FAFAFA",
"H 	c #5A5A5A",
"I 	c #D7D7D7",
"J 	c #DCDCDC",
"K 	c #555555",
"L 	c #585858",
"M 	c #F8F8F8",
"N 	c #A1A1A1",
"O 	c #494949",
"P 	c #A9A9A9",
"Q 	c #4F4F4F",
"R 	c #E0E0E0",
"S 	c #D2D2D2",
"T 	c #696969",
"U 	c #939393",
"V 	c #B5B5B5",
"W 	c #F2F2F2",
"X 	c #404040",
"Y 	c #1C1C1C",
"Z 	c #E8E8E8",
"` 	c #C8C8C8",
" .	c #787878",
"..	c #FDFDFD",
"+.	c #848484",
"@.	c #C0C0C0",
"#.	c #EDEDED",
"$.	c #323232",
"%.	c #BEBEBE",
"&.	c #DDDDDD",
"*.	c #878787",
"=.	c #CBCBCB",
"-.	c #424242",
";.	c #969696",
">.	c #D5D5D5",
",.	c #535353",
"'.	c #F7F7F7",
").	c #A4A4A4",
"!.	c #DEDEDE",
"                                                                                                                                                                                                                                                                ",
"                                                                                                                                                                                                                                                                ",
"                                                                                                                                                                                                                                                                ",
"                                                                                                                                                                                                                                                                ",
"                                                                                                                                                                                                                                                                ",
"                                                                                                                                                                                                                                                                ",
"                                                                                                                                                                                                                                                                ",
"                                                                                                                                                                                                                                                                ",
"                                                                                                                                                                                                                                                                ",
"                                                                                                                                                                                                                                                                ",
"                                                                                                                                                                                                                                                                ",
"                                                                                                                                                                                                                                                                ",
"                                                                                                                                                                                                                                                                ",
"                                                                                                                                                                                                                                                                ",
"                                                                                                                                                                                                                                                                ",
"                                                                                                                                                                                                                                                                ",
"                                                                                                                                                                                                                                                                ",
"                                                                                                                                                                                                                                                                ",
"                                                                                                                                                                                                                                                                ",
"                                                                                                                                                                                                                                                                ",
"                                                                                                                                                                                                                                                                ",
"                                                                                                                                                                                                                                                                ",
"                                                                                                                                                                                                                                                                ",
"                                                                                                                                                                                                                                                                ",
"                                                                                                                                                                                                                                                                ",
"                                                                                                                                                                                                                                                                ",
"                                                                                                                                                                                                                                                                ",
"                                                                                                                                                                                                                                                                ",
"                                                                                                                                                                                                                                                                ",
"                                                                                                                                                                                                                                                                ",
"                                                                                                                                                                                                                                                                ",
"                                                                                                                                                                                                                                                                ",
"                                                                                                                                                                                                                                                                ",
"                                                                                                                                                                                                                                                                ",
"                                                                                                                                                                                                                                                                ",
"                                                                                                                                                                                                                                                                ",
"                                                                                                                                                                                                                                                                ",
"                                                                                                                                                                                                                                                                ",
"                                                                                                                                                                                                                                                                ",
"                                                                                                                                                                                                                                                                ",
"                                                                                                                                                                                                                                                                ",
"                                                                                                                                                                                                                                                                ",
"                                                                                            . + + + + + @                                             # + + + + + #                                                                                             ",
"                                                                                            $ % % % % % & *                                           = % % % % % =                                                                                             ",
"                                                                                            $ % % % % % % -                                           = % % % % % =                                                                                             ",
"                                                                                            $ % % % % % % % ;                                         = % % % % % =                                                                                             ",
"                                                                                            $ % % % % % % % > ,                                       = % % % % % =                                                                                             ",
"                                                                                            $ % % % % % % % % '                                       = % % % % % =                                                                                             ",
"                                                                                            $ % % % % % % % % $ )                                     = % % % % % =                                                                                             ",
"                                                                                            $ % % % % % % % % % ! ~                                   = % % % % % =                                                                                             ",
"                                                                                            $ % % % { ] % % % % % ^                                   = % % % % % =                                                                                             ",
"                                                                                            $ % % % / ( % % % % % _ :                                 = % % % % % =                                                                                             ",
"                                                                                            $ % % % !   < % % % % % [ }                               = % % % % % =                                                                                             ",
"                                                                                            $ % % % |   1 2 % % % % % 3                               = % % % % % =                                                                                             ",
"                                                                                            $ % % % 2     4 % % % % % 5 6                             = % % % % % =                                                                                             ",
"                                                                                            $ % % % _       7 % % % % % 8                             = % % % % % =                                                                                             ",
"                                                                                            $ % % % % 9     = 5 % % % % % 0                           = % % % % % =                                                                                             ",
"                                                                                            $ % % % % a       b % % % % % c d                         = % % % % % =                                                                                             ",
"                                                                                            $ % % % % 1       } { % % % % % e                         = % % % % % =                                                                                             ",
"                                                                                            $ % % % % f         g h % % % % % i                       = % % % % % =                                                                                             ",
"                                                                                            $ % % % % j           k % % % % % | l                     = % % % % % =                                                                                             ",
"                                                                                            $ % % % % m           n o % % % % % p                     = % % % % % =                                                                                             ",
"                                                                                            $ % % % % g             q $ % % % % $ r                   = % % % % % =                                                                                             ",
"                                                                                            $ % % % % s               t % % % % % u n                 = % % % % % =                                                                                             ",
"                                                                                            $ % % % % s               v w % % % % % x                 = % % % % % =                                                                                             ",
"                                                                                            $ % % % % s                 y % % % % % h z               = % % % % % =                                                                                             ",
"                                                                                            $ % % % % s                   A % % % % % B 9             = % % % % % =                                                                                             ",
"                                                                                            $ % % % % s                   C D % % % % % E             = % % % % % =                                                                                             ",
"                                                                                            $ % % % % s                     F % % % % % G j           H % % % % % =                                                                                             ",
"                                                                                            $ % % % % s                       I % % % % % J           K % % % % % =                                                                                             ",
"                                                                                            $ % % % % s                       L M % % % % % N         O % % % % % =                                                                                             ",
"                                                                                            $ % % % % s                         P % % % % % 2 Q       , % % % % % =                                                                                             ",
"                                                                                            $ % % % % s                         } R % % % % % S       } % % % % % =                                                                                             ",
"                                                                                            $ % % % % s                           T _ % % % % % U       _ % % % % =                                                                                             ",
"                                                                                            $ % % % % s                             V % % % % % W X     2 % % % % =                                                                                             ",
"                                                                                            $ % % % % s                             Y Z % % % % % `     | % % % % =                                                                                             ",
"                                                                                            $ % % % % s                                ...% % % % % +.  o % % % % =                                                                                             ",
"                                                                                            $ % % % % s                                 @.% % % % % #.# B % % % % =                                                                                             ",
"                                                                                            $ % % % % s                                 $.> % % % % % %.&.% % % % =                                                                                             ",
"                                                                                            $ % % % % s                                   *.% % % % % ..W % % % % =                                                                                             ",
"                                                                                            $ % % % % s                                     =.% % % % % % % % % % =                                                                                             ",
"                                                                                            $ % % % % s                                     -.& % % % % % % % % % =                                                                                             ",
"                                                                                            $ % % % % s                                       ;.% % % % % % % % % =                                                                                             ",
"                                                                                            $ % % % % s                                         >.% % % % % % % % =                                                                                             ",
"                                                                                            $ % % % % s                                         ,.'.% % % % % % % =                                                                                             ",
"                                                                                            $ % % % % s                                           ).% % % % % % % =                                                                                             ",
"                                                                                            $ % % % % s                                             !.% % % % % % =                                                                                             ",
"                                                                                                                                                                                                                                                                ",
"                                                                                                                                                                                                                                                                ",
"                                                                                                                                                                                                                                                                ",
"                                                                                                                                                                                                                                                                ",
"                                                                                                                                                                                                                                                                ",
"                                                                                                                                                                                                                                                                ",
"                                                                                                                                                                                                                                                                ",
"                                                                                                                                                                                                                                                                ",
"                                                                                                                                                                                                                                                                ",
"                                                                                                                                                                                                                                                                ",
"                                                                                                                                                                                                                                                                ",
"                                                                                                                                                                                                                                                                ",
"                                                                                                                                                                                                                                                                ",
"                                                                                                                                                                                                                                                                ",
"                                                                                                                                                                                                                                                                ",
"                                                                                                                                                                                                                                                                ",
"                                                                                                                                                                                                                                                                ",
"                                                                                                                                                                                                                                                                ",
"                                                                                                                                                                                                                                                                ",
"                                                                                                                                                                                                                                                                ",
"                                                                                                                                                                                                                                                                ",
"                                                                                                                                                                                                                                                                ",
"                                                                                                                                                                                                                                                                ",
"                                                                                                                                                                                                                                                                ",
"                                                                                                                                                                                                                                                                ",
"                                                                                                                                                                                                                                                                ",
"                                                                                                                                                                                                                                                                ",
"                                                                                                                                                                                                                                                                ",
"                                                                                                                                                                                                                                                                ",
"                                                                                                                                                                                                                                                                ",
"                                                                                                                                                                                                                                                                ",
"                                                                                                                                                                                                                                                                ",
"                                                                                                                                                                                                                                                                ",
"                                                                                                                                                                                                                                                                ",
"                                                                                                                                                                                                                                                                ",
"                                                                                                                                                                                                                                                                ",
"                                                                                                                                                                                                                                                                ",
"                                                                                                                                                                                                                                                                ",
"                                                                                                                                                                                                                                                                ",
"                                                                                                                                                                                                                                                                ",
"                                                                                                                                                                                                                                                                "};
