/* XPM */
static char * SO_texture_xpm[] = {
"128 128 119 2",
"  	c #000000",
". 	c #0D0D0D",
"+ 	c #7A7A7A",
"@ 	c #B1B1B1",
"# 	c #CFCFCF",
"$ 	c #E2E2E2",
"% 	c #EBEBEB",
"& 	c #F0F0F0",
"* 	c #EEEEEE",
"= 	c #E9E9E9",
"- 	c #D8D8D8",
"; 	c #C1C1C1",
"> 	c #A4A4A4",
", 	c #161616",
"' 	c #494949",
") 	c #BBBBBB",
"! 	c #FFFFFF",
"~ 	c #F7F7F7",
"{ 	c #D6D6D6",
"] 	c #A7A7A7",
"^ 	c #404040",
"/ 	c #AFAFAF",
"( 	c #F9F9F9",
"_ 	c #FAFAFA",
": 	c #CDCDCD",
"< 	c #383838",
"[ 	c #DBDBDB",
"} 	c #DEDEDE",
"| 	c #262626",
"1 	c #E0E0E0",
"2 	c #A3A3A3",
"3 	c #C5C5C5",
"4 	c #FEFEFE",
"5 	c #ADADAD",
"6 	c #5F5F5F",
"7 	c #474747",
"8 	c #626262",
"9 	c #797979",
"0 	c #A2A2A2",
"a 	c #C4C4C4",
"b 	c #FDFDFD",
"c 	c #3D3D3D",
"d 	c #727272",
"e 	c #E4E4E4",
"f 	c #767676",
"g 	c #424242",
"h 	c #9B9B9B",
"i 	c #D5D5D5",
"j 	c #FCFCFC",
"k 	c #D1D1D1",
"l 	c #CBCBCB",
"m 	c #E3E3E3",
"n 	c #353535",
"o 	c #4B4B4B",
"p 	c #F5F5F5",
"q 	c #838383",
"r 	c #B8B8B8",
"s 	c #8C8C8C",
"t 	c #7D7D7D",
"u 	c #B7B7B7",
"v 	c #656565",
"w 	c #D0D0D0",
"x 	c #F8F8F8",
"y 	c #DADADA",
"z 	c #BFBFBF",
"A 	c #9C9C9C",
"B 	c #B2B2B2",
"C 	c #EDEDED",
"D 	c #5C5C5C",
"E 	c #818181",
"F 	c #FBFBFB",
"G 	c #5A5A5A",
"H 	c #ACACAC",
"I 	c #7F7F7F",
"J 	c #EAEAEA",
"K 	c #7E7E7E",
"L 	c #787878",
"M 	c #2A2A2A",
"N 	c #B5B5B5",
"O 	c #F6F6F6",
"P 	c #B4B4B4",
"Q 	c #454545",
"R 	c #939393",
"S 	c #F2F2F2",
"T 	c #4F4F4F",
"U 	c #898989",
"V 	c #949494",
"W 	c #686868",
"X 	c #969696",
"Y 	c #F1F1F1",
"Z 	c #8B8B8B",
"` 	c #CECECE",
" .	c #EFEFEF",
"..	c #CACACA",
"+.	c #535353",
"@.	c #B9B9B9",
"#.	c #585858",
"$.	c #BEBEBE",
"%.	c #555555",
"&.	c #D3D3D3",
"*.	c #A8A8A8",
"=.	c #C2C2C2",
"-.	c #8F8F8F",
";.	c #1C1C1C",
">.	c #4D4D4D",
",.	c #8E8E8E",
"'.	c #E6E6E6",
").	c #909090",
"!.	c #888888",
"~.	c #979797",
"{.	c #D9D9D9",
"].	c #DFDFDF",
"^.	c #C8C8C8",
"/.	c #858585",
"(.	c #A5A5A5",
"_.	c #D4D4D4",
":.	c #C7C7C7",
"<.	c #A1A1A1",
"[.	c #C9C9C9",
"                                                                                                                                                                                                                                                                ",
"                                                                                                                                                                                                                                                                ",
"                                                                                                                                                                                                                                                                ",
"                                                                                                                                                                                                                                                                ",
"                                                                                                                                                                                                                                                                ",
"                                                                                                                                                                                                                                                                ",
"                                                                                                                                                                                                                                                                ",
"                                                                                                                                                                                                                                                                ",
"                                                                                                                                                                                                                                                                ",
"                                                                                                                                                                                                                                                                ",
"                                                                                                                                                                                                                                                                ",
"                                                                                                                                                                                                                                                                ",
"                                                                                                                                                                                                                                                                ",
"                                                                                                                                                                                                                                                                ",
"                                                                                                                                                                                                                                                                ",
"                                                                                                                                                                                                                                                                ",
"                                                                                                                                                                                                                                                                ",
"                                                                                                                                                                                                                                                                ",
"                                                                                                                                                                                                                                                                ",
"                                                                                                                                                                                                                                                                ",
"                                                                                                                                                                                                                                                                ",
"                                                                                                                                                                                                                                                                ",
"                                                                                                                                                                                                                                                                ",
"                                                                                                                                                                                                                                                                ",
"                                                                                                                                                                                                                                                                ",
"                                                                                                                                                                                                                                                                ",
"                                                                                                                                                                                                                                                                ",
"                                                                                                                                                                                                                                                                ",
"                                                                                                                                                                                                                                                                ",
"                                                                                                                                                                                                                                                                ",
"                                                                                                                                                                                                                                                                ",
"                                                                                                                                                                                                                                                                ",
"                                                                                                                                                                                                                                                                ",
"                                                                                                                                                                                                                                                                ",
"                                                                                                                                                                                                                                                                ",
"                                                                                                                                                                                                                                                                ",
"                                                                                                                                                                                                                                                                ",
"                                                                                                                                                                                                                                                                ",
"                                                                                                                                                                                                                                                                ",
"                                                                                                                                                                                                                                                                ",
"                                                                                                                                                                                                                                                                ",
"                                                                                                                    . + @ # $ % & * = $ - ; > + ,                                                                                                               ",
"                                                                                                                ' ) & ! ! ! ! ! ! ! ! ! ! ! ! ! ~ { ] ^                                                                                                         ",
"                                                                                                            . / ( ! ! ! ! ! ! ! ! ! ! ! ! ! ! ! ! ! ! _ : .                                                                                                     ",
"                                                                                                          < [ ! ! ! ! ! ! ! ! ! ! ! ! ! ! ! ! ! ! ! ! ! }                                                                                                       ",
"                                                                                                        | 1 ! ! ! ! ! ! ! ! ! ! ! ! ! ! ! ! ! ! ! ! ! ! 2                                                                                                       ",
"                                                                                                        3 ! ! ! ! ! ! 4 [ 5 + 6 < 7 8 9 0 a $ b ! ! ! _ c                                                                                                       ",
"                                                                                                      d 4 ! ! ! ! ! e f                       g h i j k                                                                                                         ",
"                                                                                                      l ! ! ! ! ! m n                               o 8                                                                                                         ",
"                                                                                                      p ! ! ! ! b 6                                                                                                                                             ",
"                                                                                                    8 ! ! ! ! ! {                                                                                                                                               ",
"                                                                                                    q ! ! ! ! ! r                                                                                                                                               ",
"                                                                                                    s ! ! ! ! ! ]                                                                                                                                               ",
"                                                                                                    t ! ! ! ! ! u                                                                                                                                               ",
"                                                                                                    v ! ! ! ! ! w                                                                                                                                               ",
"                                                                                                    , x ! ! ! ! ( c                                                                                                                                             ",
"                                                                                                      y ! ! ! ! ! z                                                                                                                                             ",
"                                                                                                      A ! ! ! ! ! ! B                                                                                                                                           ",
"                                                                                                      , C ! ! ! ! ! ! { D                                                                                                                                       ",
"                                                                                                        E b ! ! ! ! ! ! F a G                                                                                                                                   ",
"                                                                                                          H ! ! ! ! ! ! ! ! j k I                                                                                                                               ",
"                                                                                                            > b ! ! ! ! ! ! ! ! ! J / '                                                                                                                         ",
"                                                                                                              K % ! ! ! ! ! ! ! ! ! ! j # L                                                                                                                     ",
"                                                                                                                M N O ! ! ! ! ! ! ! ! ! ! ! y L                                                                                                                 ",
"                                                                                                                    c P & ! ! ! ! ! ! ! ! ! ! 4 : Q                                                                                                             ",
"                                                                                                                        , R - b ! ! ! ! ! ! ! ! ! S t                                                                                                           ",
"                                                                                                                              T B C ! ! ! ! ! ! ! ! F U                                                                                                         ",
"                                                                                                                                  . V e ! ! ! ! ! ! ! ( W                                                                                                       ",
"                                                                                                                                        X Y ! ! ! ! ! ! $                                                                                                       ",
"                                                                                                                                          Q [ ! ! ! ! ! ! Z                                                                                                     ",
"                                                                                                                                            | $ ! ! ! ! ! `                                                                                                     ",
"                                                                                                                                              f ! ! ! ! !  .                                                                                                    ",
"                                                                                                                                                e ! ! ! ! ! M                                                                                                   ",
"                                                                                                                                                ..! ! ! ! ! +.                                                                                                  ",
"                                                                                                                                                @.! ! ! ! ! #.                                                                                                  ",
"                                                                                                                                                $.! ! ! ! ! <                                                                                                   ",
"                                                                                                                                                [ ! ! ! ! O                                                                                                     ",
"                                                                                                                                              %.j ! ! ! ! [                                                                                                     ",
"                                                                                                                                              &.! ! ! ! ! *.                                                                                                    ",
"                                                                                                    =.-.;.                                , a ! ! ! ! ! ~ g                                                                                                     ",
"                                                                                                    C ! O ` h >.                      . ,.'.! ! ! ! ! ! /                                                                                                       ",
"                                                                                                    C ! ! ! ! ! & y $.*.A ).q !.~./ ` S ! ! ! ! ! ! ! {..                                                                                                       ",
"                                                                                                    C ! ! ! ! ! ! ! ! ! ! ! ! ! ! ! ! ! ! ! ! ! ! ! ].c                                                                                                         ",
"                                                                                                    C ! ! ! ! ! ! ! ! ! ! ! ! ! ! ! ! ! ! ! ! ! ! ^.M                                                                                                           ",
"                                                                                                    ^.j ! ! ! ! ! ! ! ! ! ! ! ! ! ! ! ! ! ! ! $ /.                                                                                                              ",
"                                                                                                      >.(._.Y ! ! ! ! ! ! ! ! ! ! ! ! ! & :.I                                                                                                                   ",
"                                                                                                              T q <./ r ; [.` [.=./ V G                                                                                                                         ",
"                                                                                                                                                                                                                                                                ",
"                                                                                                                                                                                                                                                                ",
"                                                                                                                                                                                                                                                                ",
"                                                                                                                                                                                                                                                                ",
"                                                                                                                                                                                                                                                                ",
"                                                                                                                                                                                                                                                                ",
"                                                                                                                                                                                                                                                                ",
"                                                                                                                                                                                                                                                                ",
"                                                                                                                                                                                                                                                                ",
"                                                                                                                                                                                                                                                                ",
"                                                                                                                                                                                                                                                                ",
"                                                                                                                                                                                                                                                                ",
"                                                                                                                                                                                                                                                                ",
"                                                                                                                                                                                                                                                                ",
"                                                                                                                                                                                                                                                                ",
"                                                                                                                                                                                                                                                                ",
"                                                                                                                                                                                                                                                                ",
"                                                                                                                                                                                                                                                                ",
"                                                                                                                                                                                                                                                                ",
"                                                                                                                                                                                                                                                                ",
"                                                                                                                                                                                                                                                                ",
"                                                                                                                                                                                                                                                                ",
"                                                                                                                                                                                                                                                                ",
"                                                                                                                                                                                                                                                                ",
"                                                                                                                                                                                                                                                                ",
"                                                                                                                                                                                                                                                                ",
"                                                                                                                                                                                                                                                                ",
"                                                                                                                                                                                                                                                                ",
"                                                                                                                                                                                                                                                                ",
"                                                                                                                                                                                                                                                                ",
"                                                                                                                                                                                                                                                                ",
"                                                                                                                                                                                                                                                                ",
"                                                                                                                                                                                                                                                                ",
"                                                                                                                                                                                                                                                                ",
"                                                                                                                                                                                                                                                                ",
"                                                                                                                                                                                                                                                                ",
"                                                                                                                                                                                                                                                                ",
"                                                                                                                                                                                                                                                                ",
"                                                                                                                                                                                                                                                                ",
"                                                                                                                                                                                                                                                                ",
"                                                                                                                                                                                                                                                                "};
