/* XPM */
static char * WE_texture_xpm[] = {
"128 128 161 2",
"  	c #000000",
". 	c #424242",
"+ 	c #8D8D8D",
"@ 	c #707070",
"# 	c #4F4F4F",
"$ 	c #696969",
"% 	c #8C8C8C",
"& 	c #808080",
"* 	c #454545",
"= 	c #FEFEFE",
"- 	c #FFFFFF",
"; 	c #E4E4E4",
"> 	c #BABABA",
", 	c #DEDEDE",
"' 	c #717171",
") 	c #D4D4D4",
"! 	c #E6E6E6",
"~ 	c #FDFDFD",
"{ 	c #3B3B3B",
"] 	c #E5E5E5",
"^ 	c #FCFCFC",
"/ 	c #ADADAD",
"( 	c #A7A7A7",
"_ 	c #BFBFBF",
": 	c #909090",
"< 	c #515151",
"[ 	c #9C9C9C",
"} 	c #D6D6D6",
"| 	c #626262",
"1 	c #8A8A8A",
"2 	c #C1C1C1",
"3 	c #A3A3A3",
"4 	c #D1D1D1",
"5 	c #0D0D0D",
"6 	c #F6F6F6",
"7 	c #EEEEEE",
"8 	c #2E2E2E",
"9 	c #FBFBFB",
"0 	c #D5D5D5",
"a 	c #1C1C1C",
"b 	c #757575",
"c 	c #CACACA",
"d 	c #222222",
"e 	c #F8F8F8",
"f 	c #868686",
"g 	c #AFAFAF",
"h 	c #9B9B9B",
"i 	c #B5B5B5",
"j 	c #949494",
"k 	c #888888",
"l 	c #F4F4F4",
"m 	c #C2C2C2",
"n 	c #D8D8D8",
"o 	c #494949",
"p 	c #7A7A7A",
"q 	c #C4C4C4",
"r 	c #C0C0C0",
"s 	c #EDEDED",
"t 	c #F7F7F7",
"u 	c #E8E8E8",
"v 	c #EBEBEB",
"w 	c #737373",
"x 	c #F5F5F5",
"y 	c #6A6A6A",
"z 	c #787878",
"A 	c #B2B2B2",
"B 	c #8B8B8B",
"C 	c #AAAAAA",
"D 	c #989898",
"E 	c #DADADA",
"F 	c #ACACAC",
"G 	c #E0E0E0",
"H 	c #686868",
"I 	c #C7C7C7",
"J 	c #DBDBDB",
"K 	c #B4B4B4",
"L 	c #6D6D6D",
"M 	c #161616",
"N 	c #F0F0F0",
"O 	c #EAEAEA",
"P 	c #353535",
"Q 	c #7E7E7E",
"R 	c #F2F2F2",
"S 	c #A0A0A0",
"T 	c #7D7D7D",
"U 	c #CDCDCD",
"V 	c #939393",
"W 	c #9F9F9F",
"X 	c #C9C9C9",
"Y 	c #262626",
"Z 	c #A4A4A4",
"` 	c #F9F9F9",
" .	c #E9E9E9",
"..	c #727272",
"+.	c #535353",
"@.	c #DFDFDF",
"#.	c #C5C5C5",
"$.	c #A9A9A9",
"%.	c #585858",
"&.	c #E7E7E7",
"*.	c #EFEFEF",
"=.	c #B6B6B6",
"-.	c #656565",
";.	c #929292",
">.	c #E2E2E2",
",.	c #BCBCBC",
"'.	c #DDDDDD",
").	c #CCCCCC",
"!.	c #7F7F7F",
"~.	c #FAFAFA",
"{.	c #CBCBCB",
"].	c #9D9D9D",
"^.	c #E3E3E3",
"/.	c #838383",
"(.	c #5D5D5D",
"_.	c #D0D0D0",
":.	c #B9B9B9",
"<.	c #4D4D4D",
"[.	c #828282",
"}.	c #9E9E9E",
"|.	c #CECECE",
"1.	c #2A2A2A",
"2.	c #F1F1F1",
"3.	c #BDBDBD",
"4.	c #A2A2A2",
"5.	c #B7B7B7",
"6.	c #BBBBBB",
"7.	c #323232",
"8.	c #555555",
"9.	c #767676",
"0.	c #C8C8C8",
"a.	c #666666",
"b.	c #878787",
"c.	c #5F5F5F",
"d.	c #ABABAB",
"e.	c #5C5C5C",
"f.	c #3D3D3D",
"g.	c #C3C3C3",
"h.	c #A6A6A6",
"i.	c #919191",
"j.	c #6C6C6C",
"k.	c #A1A1A1",
"l.	c #565656",
"m.	c #DCDCDC",
"n.	c #D9D9D9",
"o.	c #7C7C7C",
"p.	c #F3F3F3",
"q.	c #8F8F8F",
"r.	c #ECECEC",
"s.	c #979797",
"t.	c #383838",
"u.	c #B8B8B8",
"v.	c #8E8E8E",
"w.	c #898989",
"x.	c #BEBEBE",
"y.	c #D2D2D2",
"z.	c #5A5A5A",
"A.	c #B0B0B0",
"B.	c #959595",
"C.	c #E1E1E1",
"D.	c #636363",
"                                                                                                                                                                                                                                                                ",
"                                                                                                                                                                                                                                                                ",
"                                                                                                                                                                                                                                                                ",
"                                                                                                                                                                                                                                                                ",
"                                                                                                                                                                                                                                                                ",
"                                                                                                                                                                                                                                                                ",
"                                                                                                                                                                                                                                                                ",
"                                                                                                                                                                                                                                                                ",
"                                                                                                                                                                                                                                                                ",
"                                                                                                                                                                                                                                                                ",
"                                                                                                                                                                                                                                                                ",
"                                                                                                                                                                                                                                                                ",
"                                                                                                                                                                                                                                                                ",
"                                                                                                                                                                                                                                                                ",
"                                                                                                                                                                                                                                                                ",
"                                                                                                                                                                                                                                                                ",
"                                                                                                                                                                                                                                                                ",
"                                                                                                                                                                                                                                                                ",
"                                                                                                                                                                                                                                                                ",
"                                                                                                                                                                                                                                                                ",
"                                                                                                                                                                                                                                                                ",
"                                                                                                                                                                                                                                                                ",
"                                                                                                                                                                                                                                                                ",
"                                                                                                                                                                                                                                                                ",
"                                                                                                                                                                                                                                                                ",
"                                                                                                                                                                                                                                                                ",
"                                                                                                                                                                                                                                                                ",
"                                                                                                                                                                                                                                                                ",
"                                                                                                                                                                                                                                                                ",
"                                                                                                                                                                                                                                                                ",
"                                                                                                                                                                                                                                                                ",
"                                                                                                                                                                                                                                                                ",
"                                                                                                                                                                                                                                                                ",
"                                                                                                                                                                                                                                                                ",
"                                                                                                                                                                                                                                                                ",
"                                                                                                                                                                                                                                                                ",
"                                                                                                                                                                                                                                                                ",
"                                                                                                                                                                                                                                                                ",
"                                                                                                                                                                                                                                                                ",
"                                                                                                                                                                                                                                                                ",
"                                                                                                                                                                                                                                                                ",
"                                                                                                                                                                                                                                                                ",
"                                                                        . + + + + + @                                     # + + + + + $                                       % + + + + &                                                                       ",
"                                                                        * = - - - - ;                                     > - - - - - ,                                     ' - - - - - )                                                                       ",
"                                                                          ! - - - - ~ {                                   ] - - - - - ^ .                                   / - - - - - (                                                                       ",
"                                                                          _ - - - - - :                                 < = - - - - - - [                                   } - - - - - |                                                                       ",
"                                                                          1 - - - - - 2                                 3 - - - - - - - 4                                 5 6 - - - - 7                                                                         ",
"                                                                          8 9 - - - - !                                 0 - - - - - - - 6 a                               b - - - - - c                                                                         ",
"                                                                            , - - - - = .                             d e - - - - - - - - f                               g - - - - - h                                                                         ",
"                                                                            i - - - - - j                             k - - - - l - - - - m                               n - - - - = o                                                                         ",
"                                                                            p - - - - - q                             m - - - - r - - - - s                             5 t - - - - !                                                                           ",
"                                                                            5 6 - - - - u                             v - - - - w x - - - - y                           z - - - - - r                                                                           ",
"                                                                              } - - - - = o                         | - - - - e 5 0 - - - - A                           A - - - - - B                                                                           ",
"                                                                              C - - - - - D                         / - - - - E   F - - - - G                           E - - - - 9 8                                                                           ",
"                                                                              H - - - - - I                         J - - - - K   L - - - - ~ o                       M e - - - - ,                                                                             ",
"                                                                                N - - - - O                       P 9 - - - - Q     R - - - - S                       T - - - - - i                                                                             ",
"                                                                                U - - - - - <                     V - - - - 6 M     U - - - - )                       K - - - - - p                                                                             ",
"                                                                                W - - - - - h                     X - - - - )       h - - - - e Y                     J - - - - 6 5                                                                             ",
"                                                                                < - - - - - c                     N - - - - Z       . ~ - - - - B                   a ` - - - - 0                                                                               ",
"                                                                                   .- - - - s                   ..- - - - - +.        @.- - - - #.                  & - - - - - $.                                                                              ",
"                                                                                  q - - - - - %.                i - - - - &.          A - - - - *.                  =.- - - - - -.                                                                              ",
"                                                                                  ;.- - - - - W                 >.- - - - ,.          $ - - - - - '                 '.- - - - *.                                                                                ",
"                                                                                  { ^ - - - - ).              * ~ - - - - !.            7 - - - - =.              Y ~.- - - - {.                                                                                ",
"                                                                                    >.- - - - 7               ].- - - - 6 M             q - - - - ^.              /.- - - - - [                                                                                 ",
"                                                                                    > - - - - - (.            _.- - - - 4               1 - - - - = <             :.- - - - = <.                                                                                ",
"                                                                                    [.- - - - - 3           M 6 - - - - }.              d e - - - - Z             @.- - - - &.                                                                                  ",
"                                                                                    d ` - - - - |.          & - - - - = o                 ) - - - - }           1.9 - - - - 2                                                                                   ",
"                                                                                      E - - - - 2.          3.- - - - ^.                  4.- - - - ~.8         f - - - - - +                                                                                   ",
"                                                                                      g - - - - - -.        u - - - - 5.                  <.= - - - - :         6.- - - - 9 7.                                                                                  ",
"                                                                                      ' - - - - - (       8.- - - - - 9.                    ^.- - - - 0.        G - - - - @.                                                                                    ",
"                                                                                        l - - - - _.      4.- - - - R                       =.- - - - *.      8 9 - - - - =.                                                                                    ",
"                                                                                        4 - - - - N       _.- - - - ).                      w - - - - - a.    b.- - - - - T                                                                                     ",
"                                                                                        Z - - - - - c.    R - - - - D                         N - - - - d.    6.- - - - t M                                                                                     ",
"                                                                                        e.- - - - - [   a.- - - - ^ f.                        0.- - - - )     , - - - - }                                                                                       ",
"                                                                                          s - - - - g.  h.- - - - ,                           i.- - - - l   5 e - - - - C                                                                                       ",
"                                                                                          0.- - - - G   {.- - - - A                           8 ~.- - - - a.j.- - - - - H                                                                                       ",
"                                                                                          D - - - - t   ! - - - - L                             n - - - - [ k.- - - - N                                                                                         ",
"                                                                                          * = - - - - -.9 - - - *.                              ( - - - - r m - - - - U                                                                                         ",
"                                                                                            ] - - - - g - - - - I                               l.- - - - m.n.- - - - }.                                                                                        ",
"                                                                                            _ - - - - G - - - - i.                                &.- - - R 7 - - - - #                                                                                         ",
"                                                                                            1 - - - - = - - - 9 7.                                6.- - - - = - - - u                                                                                           ",
"                                                                                            8 9 - - - - - - - J                                   o.- - - - - - - - m                                                                                           ",
"                                                                                              '.- - - - - - - F                                   5 p.- - - - - - - q.                                                                                          ",
"                                                                                              i - - - - - - - |                                     U - - - - - - ^ P                                                                                           ",
"                                                                                              p - - - - - - r.                                      s.- - - - - - G                                                                                             ",
"                                                                                              5 6 - - - - - g.                                      t.9 - - - - - u.                                                                                            ",
"                                                                                                0 - - - - - 1                                         m.- - - - - !.                                                                                            ",
"                                                                                                                                                                                                                                                                ",
"                                                                                                                                                                                                                                                                ",
"                                                                                                                                                                                                                                                                ",
"                                                                                                                                                                                                                                                                ",
"                                                                                                                                                                                                                                                                ",
"                                                                                                                                                                                                                                                                ",
"                                                                                                                                                                                                                                                                ",
"              v.j j j j j j B ..{ 1.5                                                                                                                                                                                                                           ",
"              6 - - - - - - - - = ` 7 q.                                                                                                                                                                                                                        ",
"              6 - - - - - - - - - - - - '.t.                                                                                                                                                                                                                    ",
"              6 - - 6.w.w.w.v.}.x.7 - - - c                                                                                                                                                                                                                     ",
"              6 - - h             7.c - - - w                                                                                                                                                                                                                   ",
"              6 - - h               P 9 - - A                                                                                                                                                                                                                   ",
"              6 - - h                 U - - {.                                                                                                                                                                                                                  ",
"              6 - - h                 A - - y.                                                                                                                                                                                                                  ",
"              6 - - h                 0.- - 0.                                                                                                                                                                                                                  ",
"              6 - - h               Y e - - C                                                                                                                                                                                                                   ",
"              6 - - h               4.- - ` z.                                                                                                                                                                                                                  ",
"              6 - - h       d * ..r - - - ].                                                                                                                                                                                                                    ",
"              6 - - - - - - - - - - - 9 S                                                                                                                                                                                                                       ",
"              6 - - - - - - - - - - ) 7.                                                                                                                                                                                                                        ",
"              6 - - s ^.^.^.^.9 - ~ o.                                                                                                                                                                                                                          ",
"              6 - - h         > - - 7                                                                                                                                                                                                                           ",
"              6 - - h         Y v - - A.                                                                                                                                                                                                                        ",
"              6 - - h           B.- - - %.                                                                                                                                                                                                                      ",
"              6 - - h             n.- - J a                                                                                                                                                                                                                     ",
"              6 - - h             L - - - 1                                                                                                                                                                                                                     ",
"              6 - - h               :.- - l t.                                                                                                                                                                                                                  ",
"              6 - - h               . ~ - - x.                                                                                                                                                                                                                  ",
"              6 - - h                 i.= - 9 ..                                                                                                                                                                                                                ",
"              6 - - h                 5  .- - G                                                                                                                                                                                                                 ",
"              C. . .%                   D. . . .&                                                                                                                                                                                                               ",
"                                                                                                                                                                                                                                                                ",
"                                                                                                                                                                                                                                                                ",
"                                                                                                                                                                                                                                                                ",
"                                                                                                                                                                                                                                                                ",
"                                                                                                                                                                                                                                                                ",
"                                                                                                                                                                                                                                                                ",
"                                                                                                                                                                                                                                                                ",
"                                                                                                                                                                                                                                                                ",
"                                                                                                                                                                                                                                                                "};
