/* XPM */
static char * collectible_xpm[] = {
"84 84 8 1",
" 	c #9BB94E",
".	c #B8B958",
"+	c #80AC5E",
"@	c #AC7A58",
"#	c #161C2E",
"$	c #E9F044",
"%	c #CEA554",
"&	c #FFFFFF",
"                              ..... ...              ..++++                         ",
"                              ..... ... +++  ..  ..  ...++ ...                      ",
"  +++    +++                   ....++..+++++... .... .... ....++  +++    +++        ",
" ++++   ++++  ++++                ++++++++++.... .... .......+++ ++++   ++++  ++++  ",
"++++   +++++++++++                +++++++++  ...  ....... ..  ++++++   +++++++++++  ",
"++++  ++++++..++++                ++                          ++++++  ++++++..++++  ",
"+++     +++...+++                                              ++++     +++...+++   ",
"           ...                                                             ...      ",
"          ...                ++                +++    +++                 ...       ",
"                         ++ +++          ++    ++++  ++++                           ",
"                         +++++..      ++ +++   ++.+ ++++++                          ",
"    ++ ++             ....+++...      +++++++  ++....++++++         ++ ++           ",
"   ++++++ +++     .. ........... ++   +++ +++++++....++ ++++       ++++++ +++     ..",
"   ++++++++++   ++......++.+... +++               ..               ++++++++++   ++..",
"     +++++++    +++.. ..+++++   ++             ++   ++               +++++++    +++.",
"                 ++      +++              +++  +++ ++++                          ++ ",
"                                          ++++++++++++++                            ",
"                                  ..   ..  ++++++++ +++++                           ",
"          ++                      ... ....  ++++..+  ..                   ++        ",
"         +++  +  ++           ... ... ........ +... ...                  +++  +  ++ ",
"     ++  ++++++ +++  +++      .... .................... ..   ..      ++  ++++++ +++ ",
"    ++++  +++...++++++++       ...  ....+++...............  ...     ++++  +++...++++",
"    ++++ ..++...+++++++         ..  +++.++++.....++..  ...  ..      ++++ ..++...++++",
"    +++  .. ...++++  +              ++++++++....+++                 +++  .. ...++++ ",
"          . ... ++                   ++  ++++   ++                        . ... ++  ",
"                                          +++                                       ",
"                                                                                    ",
"                  ++                   @@@@@@                                     ++",
"                 +++  ++             ####@@@@@@                                  +++",
"      +++        +++ +++  ++       ######$$$@@@@@                     +++        +++",
"      ++++      ++++++++++++     #####$$$$%%%$@@@@++   ++             ++++      ++++",
"++     +++      +++++++  ++     ####$$$%%%%%%%$@@@@++ +++  +    ++     +++      ++++",
"++ ++   ++ +++  +++++          ###$$$%%%%%%%%%$$@@@++++++ ++   +++ ++   ++ +++  ++++",
"++++++    ++++                ###$$$$%%%%%%%%%%$&##@+++..+++  ++++++++    ++++      ",
"++++++    +++               ++##@$$$$$$$$$%%%%%$&&##++ ...   +++++++++    +++       ",
"++++++    ++             .. +###@$$$$$$$$$$%%%%$&&###   ..   +++++++++    ++        ",
"  +++             ..     ...+##@@@$$$$$$$$$$$$$&&&###         ++  +++             ..",
"              .. ....    ....##@@@$$$$$$$$$$$$$&&$$##                         .. ...",
"     +++     ... .....    ...##@@@@$$$$$$$$$$$$&&$$##                +++     ... ...",
"++   ++++    ..  ++....     .###$@@@$$$$$$$$$$&&%%$##          +++   ++++    ..  ++.",
"++   +++++  +++  +++         ###$%%@&&&$$$$$$&&%%%$##        +++++   +++++  +++  +++",
"++++ +++++ ++++   ++          ##$%%%&&&&&&&&&&%%%%$##.  .. +++++++++ +++++ ++++   ++",
" ++++++..+++++                ##$%%%&&&&&&&&&%%%%$##.. ....++++  ++++++..+++++      ",
"  ..++....               +++  ##$%%%%&$$$&&&&%%%$$##. .....       ..++....          ",
"  ... .... ...           ++++ ###$%%%&$$$$$&&%%%$### ....         ... .... ...      ",
"  ... ... ....      ..   ++++++##$%%%$$$$$$&&%%$$##               ... ... ....      ",
"   .. ..  ..    .. ...    ++ ++##$$%%$$$$$$&@%$$### +++            .. ..  ..    .. .",
"               .. ...           ##$$%#$$$$$@@%$### ++++                        .. ..",
"                                @@@$$#$$$$$@@$###+ ++++                             ",
"  ++                          +++@@@###$$$$@@@@@++++++            ++                ",
" +++          +++    +++      ++++@@####$$@@@@@             ++   +++          +++   ",
"++++  +++     ++++   ++++     +++++@@####@@@@               +++ ++++  +++     ++++  ",
"+++   ++++ ++  ++++  +++++ ++ +++++++ #####                  ++ +++   ++++ ++  ++++ ",
"+++    ++++++++++++.. ++.++++  ++++++ ++++                      +++    ++++++++++++.",
"         ++++ +++++... ..++++++++++  ++++                                ++++ +++++.",
"                    .. ..++    +++                                                  ",
"      ++                                             ++               ++            ",
"      +++                                     +++   +++   +++         +++           ",
"       ++           ..  ..            +++ ++  ++++ ++++ +++++          ++           ",
"                   .... ...      +++  ++++++  ++++++++++++++                       .",
"              ..   .... ....     ++++  ++++++  ++++++++++++                   ..   .",
"              ... .....+++..      +++   +++++  ++   +++      ++               ... ..",
"               .......++++                             +++  +++                .....",
"                     ++++     ...   ..                 ++++ ++                      ",
"                              ..... ...              ..++++                         ",
"                              ..... ... +++  ..  ..  ...++ ...                      ",
"  +++    +++                   ....++..+++++... .... .... ....++  +++    +++        ",
" ++++   ++++  ++++                ++++++++++.... .... .......+++ ++++   ++++  ++++  ",
"++++   +++++++++++                +++++++++  ...  ....... ..  ++++++   +++++++++++  ",
"++++  ++++++..++++                ++                          ++++++  ++++++..++++  ",
"+++     +++...+++                                              ++++     +++...+++   ",
"           ...                                                             ...      ",
"          ...                ++                +++    +++                 ...       ",
"                         ++ +++          ++    ++++  ++++                           ",
"                         +++++..      ++ +++   ++.+ ++++++                          ",
"    ++ ++             ....+++...      +++++++  ++....++++++         ++ ++           ",
"   ++++++ +++     .. ........... ++   +++ +++++++....++ ++++       ++++++ +++     ..",
"   ++++++++++   ++......++.+... +++               ..               ++++++++++   ++..",
"     +++++++    +++.. ..+++++   ++             ++   ++               +++++++    +++.",
"                 ++      +++              +++  +++ ++++                          ++ ",
"                                          ++++++++++++++                            ",
"                                  ..   ..  ++++++++ +++++                           ",
"          ++                      ... ....  ++++..+  ..                   ++        ",
"         +++  +  ++           ... ... ........ +... ...                  +++  +  ++ "};
