/* XPM */
static char * floor_xpm[] = {
"84 84 3 1",
" 	c #80AC5E",
".	c #9BB94E",
"+	c #B8B958",
"  ...............++...............          ...  ++++++  + +++.   ...............++.",
" .............  ...  ...............       ....   ++.++     ...  .............  ... ",
".........   ..   .    ..........................  ......   ..............   ..   .  ",
".........              ..................................................           ",
".++...++..        .     .........................................++...++..        . ",
".+++.++++..    ++ ..++...................  ......................+++.++++..    ++ ..",
".+++.++++++++. +++.+++..................   .. ..  ...........+++.+++.++++++++. +++.+",
"+.++++++++++++++++++++.++...++......  ..      .   ..   ......++++.++++++++++++++++++",
"+..++++   +++++++++++++++..+++.....    ..   +++        .......+++..++++   ++++++++++",
"+..   +    +++++  ++..+++..++......    .++  +++       .........++..   +    +++++  ++",
"...        ++++   .................   ..++.+++    .. ..............        ++++   ..",
"....  ..    ...  ........................+.+++.  ...................  ..    ...  ...",
".........   .............................................................   ........",
"....................................................................................",
"....  ...........................................  .................................",
"..    .  .......................................   ..  .............................",
"         ..   .......................   ........   .   ..  ................   ......",
"        ...    .   ...  .............    ......            ................    .   .",
" ...........   .    .   .. ....  .....   ......       ..  ..................   .    ",
".............   .       .  ...   .  ...  .   ..     .........................   .   ",
"..++.......  .  ..    ++   ..        ....    .....................++.......  .  ..  ",
"..+++..  ..   .....  .+++...         ....   ...............  .....+++..  ..   ..... ",
"+.+++.   ..    ........++...         ....  .............++.   +++.+++.   ..    .....",
"++++++  ....   ..............  ..   .............++.....+++   ++++++++  ....   .....",
"+++  +++.....................................++.++++....++++  +++++  +++............",
"++   ++.............................   .....+++.+++++....++++..+++   ++.............",
".   ..........................   ...    ....++..  ++++.....++....   ................",
"............................     ...     ..   ..   .................................",
"...................++..++.         .     .    ...  ................................+",
"..  ...   ...++...+++.++++    ..      ++     .....................  ...   ...++...++",
"..   .    ...+++..++.+++++.......++  ++++...............   .......   .    ...+++..++",
"..++     .   .++..+.++++.........+++.++++.+++...........    .   ..++     .   .++..+.",
".+++ ++      ....................+++.+++.++++......++...        .+++ ++      .......",
".++++++.    .......   ............++.++..++....++.+++....  .   ..++++++.    ....... ",
"...+++............    ........................++.+++...............+++............  ",
"...............  .    .........................................................  .  ",
"...............      ............  ..........................   ...............     ",
" .  .......................  ...   ..........   ....   ......    .  ................",
"    .......................   .    ..   .....    ...    .....       ................",
"    ..   ...................  .   ...    .  ..    ..     .  .       ..   ...........",
"    .    ......................   ....            ++.  +    ..      .    ...........",
"  ..    ................................    .     +++.++          ..    ............",
" ..................................................++.++  ....   ...................",
"....................  ...............  .............................................",
".............   ...   ...   .........   .....................................   ... ",
".....   .  ..    .    .     ..........  ...........++..++............   .  ..    .  ",
"   ..      ..              .......................++++.+++......   ..      ..       ",
"    ..      ..            ...................++...++++.++++.....    ..      ..      ",
".   ...     ..  ...   ......  ...............+++.+++++   ++......   ...     ..  ... ",
"......................   ..   ................+++++++    ...........................",
"...++.................    .  .......................    .....+++...++...............",
"++.+++..............++    ...................................+++++.+++..............",
"++.+++.   ..++..++..+++  .+++................................+++++.+++.   ..++..++..",
"++  ++     +++.++++.++++.++++  ..   ....   ...................++++  ++     +++.++++.",
".          ++++.++++.+++++++   .    ...    ..    ................          ++++.++++",
".     .   ..+++..+++++++.++..      ...           ................         ..+++..+++",
".  ..........................      ..      ++    ................  .................",
"..............................    .....   +++   ....................................",
"..........................................+++.......................................",
"..............   ....   .................+++................  ................   ...",
"........  ....    ..    ................................  .   ..........  ....    ..",
".....  .   ...  + .      ...............................     ++......  .   ...  + . ",
".....       ..  ++++      .........  .  .............++++   +++......       ..  ++++",
"  ...   .       ++++  .    .......      .   .....++.+++++++++++.  ...   .       ++++",
"  ...............++...............          ...  ++++++  + +++.   ...............++.",
" .............  ...  ...............       ....   ++.++     ...  .............  ... ",
".........   ..   .    ..........................  ......   ..............   ..   .  ",
".........              ..................................................           ",
".++...++..        .     .........................................++...++..        . ",
".+++.++++..    ++ ..++...................  ......................+++.++++..    ++ ..",
".+++.++++++++. +++.+++..................   .. ..  ...........+++.+++.++++++++. +++.+",
"+.++++++++++++++++++++.++...++......  ..      .   ..   ......++++.++++++++++++++++++",
"+..++++   +++++++++++++++..+++.....    ..   +++        .......+++..++++   ++++++++++",
"+..   +    +++++  ++..+++..++......    .++  +++       .........++..   +    +++++  ++",
"...        ++++   .................   ..++.+++    .. ..............        ++++   ..",
"....  ..    ...  ........................+.+++.  ...................  ..    ...  ...",
".........   .............................................................   ........",
"....................................................................................",
"........................++.......................  .................................",
".....................+++++......................   ..  .............................",
"...........   .....++++++..........+.   ........   .   ..  ...++...........   ......",
"...........    .   +++  +....++...++.    ......            ..+++...........    .   .",
".++.........   .    +   ++  +++  +++.+   +.....       ..  ...++.....++......   .    ",
"+++..++  ....   .       +  +++   ++ +++ ++   .. ++  .....++........+++.+.....   .   "};
