/* XPM */
static char * player_xpm[] = {
"84 84 15 1",
" 	c #9BB94E",
".	c #434055",
"+	c #B8B958",
"@	c #80AC5E",
"#	c #161C2E",
"$	c #5E6F86",
"%	c #C8A876",
"&	c #B8C1C3",
"*	c #EFE1AB",
"=	c #5A6366",
"-	c #8C9695",
";	c #FFFFFF",
">	c #6C9250",
",	c #839D43",
"'	c #9C9D4B",
"                      ..........+++ +++              ++@@@@                         ",
"                   #####........... +++ @@@  ++  ++  +++@@ +++                      ",
"  @@@    @@@      ######$$$$$$......@++@@@@@+++ ++++ ++++ ++++@@  @@@    @@@        ",
" @@@@   @@@@  @@@####..$$$$$$$$$$$....@@@@@@++++ ++++ +++++++@@@ @@@@   @@@@  @@@@  ",
"@@@@   @@@@@@@@@###......$$$$$$$$$$$...@@@@  +++  +++++++ ++  @@@@@@   @@@@@@@@@@@  ",
"@@@@  @@@@@@++@###........$$$$$$$$$$$...                      @@@@@@  @@@@@@++@@@@  ",
"@@@     @@@+++@###.....$$$$$$...$$$$$$...                      @@@@     @@@+++@@@   ",
"           +++###.....$$$$$$$$$...$$$$$..                                  +++      ",
"          +++ ###....$$$$$$$$$$$...$$$$$..     @@@    @@@                 +++       ",
"              ##.....$$$$$$$$$$$$$..$$$$..@    @@@@  @@@@                           ",
"              ##....$$$$$$$$$$$$$$...$$$$.@@   @@+@ @@@@@@                          ",
"    @@ @@    ###....$$$$$$$$$$$$$$$...$$$..@@  @@++++@@@@@@         @@ @@           ",
"   @@@@@@ @@@###............$$$$$$$$..$$$..@@@@@@++++@@ @@@@       @@@@@@ @@@     ++",
"   @@@@@@@@@@##...............$$$$$$..$$$..       ++               @@@@@@@@@@   @@++",
"     @@@@@@@ ##.......#####....$$$$$...$$.#    @@   @@               @@@@@@@    @@@+",
"             ##........######..$$$$$$..$$.#@@  @@@ @@@@                          @@ ",
"             ##.........######..$$$$$..$$##@@@@@@@@@@@@@                            ",
"           #####.........######.$$$$$....##@@@@@@@@ @@@@@                           ",
"        ########..........#####..$$$$...### @@@@++@  ++                   @@        ",
"       ##########.........#####..$$$$...####++ @+++ +++                  @@@  @  @@ ",
"     @#####...###........#######..$$...###%##%+++++++++ ++   ++      @@  @@@@@@ @@@ ",
"    @@###......###......###%%###.......##%%%#%%+++++++++++  +++     @@@@  @@@+&&&&@@",
"    @###........##.....###%%%%##.......#%%%%*%%%+@@++  +++  ++      @@@@ ++@&&&&&=@@",
"    @###........##....###%%%%%%#.......%%%%%**%%%@@                 @@@  +&&&&&&==@ ",
"     ###........##....###%%%%%%%.....%%%%%%***%%%@                      &&&&&&--==  ",
"     ###........##....###**%%%%%%%%%%%%%%%***%%%%                     &&&&&--&--==  ",
"     ###.......##....#####%***%%%%%%%%%%****%%%%%%                    &&&----&--==  ",
"     ###.............########**************%%**%%%                   &&&&---&---==@@",
"      ##.............##*############************%%%                  &&&&---&---==@@",
"      ###...........##**%%%######***************%%%                 &&&&&&-&&---==@@",
"      ###...........##**%%%%%%%******************%%@   @@           &&&&&&-&----==@@",
"@@     ###.........###**%%%%%%%**********###*****%%%@ @@@  @    @@ &&&&&&&&&----==@@",
"@@ @@  ####........###*%%%%%%%%**********###*****%%%@@@@@ @@   @@@ &&&&&&&&-----==@@",
"@@@@@@  #####....####**%%%%%%%%**********####*****%%#@@++@@@  @@@@&&&&&&&&&-----==  ",
"@@@@@@   ############**%%%%%%%%**********####*****%##@ +++   @@@@@&&--&&&&&----===  ",
"@@@@@@    ###########**%%%%%%%%***********###*****###   ++   @@@@&&&--&&&&&----##   ",
"  @@@       #########*%%%%%%%%************####****###         @@ &&----&&&----### ++",
"              #######*%%%%%%%%************####***###            &&&----&&-----## +++",
"     @@@     +++ ###**%%%%%%%%************####**####            &&-----&&----### +++",
"@@   @@###   ++  ###**%%%%%%%%************############         &&&----&&-----##  @@+",
"@@   @##### @@@  ###*%%%%%%%%%*########################      @@&&-----&&----###  @@@",
"@@@@ #######@@@  ###*%%%%%*****####################**## ++ @@@#&&----&&-----##@   @@",
" @@@###;;####@   ##**%%%%%%******#################***##++++@@@##-----&&----###      ",
"  +####;;;####  ###**%%%%%%%%*******#############***%###+++  ###----&&-----##       ",
"  +#####;;;;#######*%%%%%%%%%%%%*******########****%%###+    ###----=&----###+      ",
"  +######;;;;######*%%%%%%%%%%%%%%*********####***%%%###    ###----==-----###+      ",
"   ##**###;;;;;#####%%%%%%%%%%%%%%%%*******###***%%%%%##    ###----==----###    ++ +",
"   ##***####;;;;;#######%%%%%%%%%%%%%%%****###**%%%%%%##   ###-----=-----###   ++ ++",
"   ##*$$**###;;;;;;;;#############%%%%%%%**###**%%%%%%##   ###----==----###         ",
"  @##*$$$****##;;;;;;;;;;#########%%%%%%%**###**%%%%%%##   ##-----=-----###         ",
" @@##*$$$$$*******;;;;;;;;;;;;;;##%%%%%%%**###**%%%%%%##  ###----==----###    @@@   ",
"@@@##*$$$$$$$$*******;;;;;;;;;;;##%%%%%%%**###**%%%%%###  ##-----=-----###    @@@@  ",
"@@@##*$$$$$$$$$$*********;;;;;;$##%%%%%%%**###**%%%%#### ###----==----###@ @@  @@@@ ",
"@@@##*$$$$$$$$$$************;;$$##%%%%%%%**###**%%%########----=#=----###@@@@@@@@@@+",
"   ##*$$$$$$$$$$************;;$$##%%%%%%%**##***%%#########---=##=----## @@@@ @@@@@+",
"   ##*$$$$$$$$$$************;;$$##%%%%%%%*******%#####$####====##=--=###            ",
"   ##*$$$$$$$$$$************;;$$###%%%%%%*******######$$####==##=====##@            ",
"   ##*$$$$$$$$$$************;;$$#####%%%%%*****###$$###$$$######====###@@           ",
"   ##*$$$$$$$$$$*%***********;$$########%%%%%%###$$$###$$$$$#####===## @@           ",
"   ##**$$$$$$$$$*%%**********;$$##$#############$$$$#####$$$$.######## ####        +",
"   ##****$$$$$$$*%%%*********$$$##$$$##########$$$$########.....############  ++   +",
"   ##******$$$$$*%%%%********$$$##$$$$$$######$$$$###########.....######$$### +++ ++",
"   ##********$$$*%%%%%*******$$$##$$$$$$$$$$$$$$$###.###%%#####.....###$$$$##  +++++",
"   ##******%%*$$***%%%%******$$$##...$$$$$$$$$$####..##%%########....##$$$$##       ",
"   ##******%%%***$$**********#$$##.....$$$$$.........##%%##%%%#####...##$$$##       ",
"   ##******%%%%%*$$$$$*******#$$##...................##%##%%%%%######...$$###       ",
"  @@##******%%%%*$$$$$$$$$***#$$##...................#####%%%%%#######..$###        ",
" @@@##******%%%%*$$$$$$$$#####$$##..................######%%%%###@@########@  @@@@  ",
"@@@@###******%%%*$$$$$$$$$$###$$##..................##..###%%###@@@@ #####@@@@@@@@  ",
"@@@@ ##******%%%*$$$$$$$$$$*##$$##.................###..#######@@@@@  @@@@@@++@@@@  ",
"@@@   ##******%**$$$$$$$$$$*##$$##................###....##### @@@@     @@@+++@@@   ",
"      ##******%**$$$$$$$$$$*##$$##..............#####.....##               +++      ",
"       ##*****%*$$$$$$$$$$**##$$##...........#########...##               +++       ",
"        ##******$$$$$$$$$$*##$$#################### #######                         ",
"         ##*****$$$$$$$$$**#$$######################>@####                          ",
"    @@ @@ ##****#$$$$$$$**##$################,#######>@@@@@         @@ @@           ",
"   @@@@@@ ###***#$$$$$$**######',>>,,,>>>,>>>>>>#####>> @@@@       @@@@@@ @@@     ++",
"   @@@@@@@@###**#$$$$$**######',>>>,,,,,,,,,,,,,,####,,,           @@@@@@@@@@   @@++",
"     @@@@@@@#####$$$$**######,,,>>,,,,,,,,,,,,,>>###>>,,,            @@@@@@@    @@@+",
"             ####$$$**#####>,,,,,,,,,,,,,,>>>,,>>#####>,,                        @@ ",
"              ###$$**#####,,,,,,,,,,,,,,,,>>>>>>>>>>>>>>,                           ",
"               ###**#####,,,,,,,,,'',,,'',,>>>>>>>>,>>>>>                           ",
"          @@    #######,,,,,,,,,,,''','''',,>>>>''>,,'',                  @@        ",
"         @@@  @  #####,,,,,,,,''',''','''''''',>''','''                  @@@  @  @@ "};
