/* XPM */
static char * walls_xpm[] = {
"84 84 9 1",
" 	c #80AC5E",
".	c #9BB94E",
"+	c #B8B958",
"@	c #354F59",
"#	c #3C7662",
"$	c #161C2E",
"%	c #669D9D",
"&	c #8CC3C4",
"*	c #506A69",
"  .......+++..++++   +++++++++++++++..+++.....    ..   +++        .......+++..++++  ",
" ++.......++..   +    +++++  ++..+++..++......    .++  +++       .........++..   +  ",
"+++..++.......        ++++   .................   ..++.+++    .. ..............      ",
"++..+++........  ..    ...  ........................+.+++.  ...................  .. ",
"+++++++.............   .............................................................",
"++++++..............................................................................",
"+++++..............................++.......................  ......................",
"  +++...........................+++++......................   ..  ..................",
"  ++  +...............   .....++++++..........+.   ........   .   ..  ...++.........",
"      ++..............    .   +++  +....++...++.    ......            ..+++.........",
" ++  +++....++.........   .    +   ++  +++  +++.+   +.....       ..  ...++.....++...",
"++++++++...+++..++  ....   .       +  +++   ++ +++ ++   .. ++  .....++........+++.+.",
"+++.+++...++++++++  ... +  .+                  ++++++   ..+++   ++.+++++++...+++.++.",
"++..   ..++++  +++   .  +++.++ ++               ++++   ...++     +++++  +++..++++++ ",
"+..      ++    ++        +++.++++               +++.  .....      ++  +   +++++++++  ",
" ..                       ++++++               ++++.......           ++   +++@@@+   ",
"                           ++                  +++++.++..++          +++    @@@     ",
"      #                                           +++++.+++         +++     @@      ",
"$     #       @                                     ++.+++          ++      @@      ",
"$     ##     @@                 @                    +.                     @@@    @",
"$$   ###@   @@      @     @     @@      @                   ##               @@@@@@@",
"$$######@@@@@@     @@     @@     @@     @    @@            ##          #      @@@@@@",
"$$%####&&@@@@@     @@#   #@@     @@     @@  @@       @    ###          #      @@###@",
"$%%%%&&&&&&&@@     @@#####@@@    @@@    @@@@@        @    ##     #    &#@    @@@###%",
"#&%%%%&&&&&&@@@   @@@#####%@@@  @@@@@  @@@@@@       @@    ##     ##  #&&@@@@@@@###%%",
"#&&&%%%&&&&&&@@@@@@@######%%@@@@@@#@@@@@@##@@      @@@@  @##     #####&&&@@@@@%%%%%%",
"&&&&&%%%%%%%%%@@@@@######%%%#@@@@###@@@@###@@@    @@@@@@@@###   &&###&&&&#####&&&&%*",
"&&&&%%%%%%%%%%%%%%%%%###%%%**#######&&######@@@  @@@##@@@&&###&&&%%%%%%%%%###&&&&&&*",
"&&&&&&&&&&&%%%%%%%%%%%%%%***&&#####&&&&####&*@@@@@@%#####&&&&&&%%%%%%%%%&&&&&&&&&&&$",
"&&&&&&&&&&%%%%%%%%%%%%%%***&&&&&&&&&&&&&&&&&&**$$$$%%###%%%%%%%%%%%%%&&&&&&&&&&&&&&$",
"&&&&&&&&%%%%%%%%%&&&%%****&&&&&&&&&&&&&&&&&&&**$$$$$%%%%%%%%%%%%%%%&&&&&&&&&&&&&&&*$",
"%%%%%%%%%%%%%%%&&&&&&***$&&&&&&&&&&&&&&&&&&%%***$$$$&&&&&&%%%%%%&&&&&&&&&&&&&&&&&%**",
"%%%%%%%%%%%%%&&&&&&&&&**$&&&&&&&&&&&&&&&%%%%%%***$$$$&&&&&&&%%%%%&&&&&&&&&&&&&%%%%**",
"%%%%%%%%%%&&&&&&&&&&&&*$$*&&&&&&&&&&&&%%%%%%%%***$$$$$&&&&&&&&&%%%&&&&&&&&&&%%%%%%**",
"%%%%%%%%%%%&&&&&&&&&**$$$**%&&&&&&&%%%%%%%%%%%****$$**$$&&&&&&%%%%%&&&&&&&&%%%%%%%%*",
"%%%%%%%%%%%%%&&&&&&***$$$**%%%%%%%%%%%%%%%%%%%****$$*****&&&%%%%%%%%%%%%%%%%%%%%%%%*",
"%%%%%%%%%%%%%%%%%%%***$$$**%%%%%%%%%%%%%%%%%%%****$********%%%%%%%%%%%%%%%%%%%%%%%%*",
"%%%%%%%%%%%%%%%%%%%****$$**%%%%%%%%%%%%%%%%%%%****$*******%%%%%%%%%%%%%%%%%%%%%%%%%%",
"%%%%%%%%%%%%%%%%%%%****$$***%%%%%%%%%%%%%%%%%************%%%%%%%%%%%%%%%%%%%%%%%%%%%",
"%%%%%%%%%%%%%%%%%%%****$$***%%%%%%%%%%%%%%%%***********%%%%%%%%%%%%%%%%%%%%%%%%%%%%%",
"%%%%%%%%%%%%%%%%%%%****$****%%%%%%%%%%%%%%%%%%%*******%%%%%%%%%%%%%%%%%%%%%%%%%%%%%%",
"%%%%%%%%%%%%%%%%%%%****$****%%%%%%%%%%%%%%%%%%%*******%%%%%%%%%%%%%%%%%%%%%%%%%%%%%%",
"%%%%%%%%%%%%%%%%%%%*********%%%%%%%%%%%%%%%%%%%*******%%%%%%%%%%%%%%%%%%%%%%%%%%%%%%",
"%%%%%%%%%%%%%%%%%%%%*****$**%%%%%%%%%%%%%%%%%%%*******%%%%%%%%%%%%%%%%%%%%%%%%%%%%%%",
"%%%%%%%%%%%%%%%%%%%%****$$$***%%%%%%%%%%%%%%%%%*******%%%%%%%%%%%%%%%%%%%%%%%%%%%%%%",
"*%%%%%%%%%%%%%%%%%%%%***$$$$*****%%%%%%%%%%%%%%*******%%%%%%%%%%%%%%%%%%%%%%%%%%%%%%",
"**%%%%%%%%%%%%%%%%%%%***$$$$$**%%%%%%%%%%%%%%%***$****%%%%%%%%%%%%%%%%%%%%%%%%%%%%%%",
"***%%%%%%%%%%%%%%%%%%***$$$$$%%%%%%%%%%%%%%%%%***$****%%%%%%%%%%%%%%%%%%%%%%%%%%%%%%",
"***%%%%%%%%%%%%%%%%%%***$$**%%%%%%%%%%%%%%%%%%***$$***%%%%%%%%%%%%%%%%%%%%%%%%%%%%%$",
"***%%%%%%%%%%%%%%%%%%***$$**%%%%%%%%%%%%%%%%%***$$$***%%%%%%%%%%%%%%%%%%%%%%%%%%%%$$",
"****%%%%%%%%%%%%%%%%***$$$**%%%%%%%%%%%%%%%%%***$$$$**%%%%%%%%%%%%%%%%%%%%%%%%%%%***",
"*****%%%%%%%%%%%%%%***$$$$**%%%%%%%%%%%%%%%%%**$$$$$***%%%%%%%%%%%%%%%%%%%%%%%%*****",
"&&&*****%%%%%%%%%*******$$**%%%%%%%%%%%%%%%%**$$$$$$***%%%%%%%%%%%%%%%******%*****%%",
"&&&&&&&&&&&&&&%%%%%%%%**$$***%%%%%%%%%%%%%%%*****$$$***%%%%%%%%%%%%%%%%****%%%%%%%%%",
"&&&&&&&&&&%%%%%%%%%%%%%*$$***%%%%%%%%%%%%%%%&&&***$$***%%%%%%%%%%%%%%%%%%%%%%%%%%%%%",
"&&&&&&&&%%%%%%%%%%%%%%%**$***%%%%%%%%%%%%%&&&&&&**$$****%%%%%%%%%%%%%%%%%%%%%%%%%%%%",
"&&&&&&%%%%%%%%%%%%%%%%%**$****%%%%%%%%%%%&&&&&&&**$$****%%%%%%%%%%%%%%%%%%%%%%%%%%%%",
"&&&&%%%%%%%%%%%%%%%%%%%**$****%%%%%%%%%&&&&&&&&%**$$$****%%%%%%%%%%%%%%%%%%%%%%%%%%%",
"%%%%%%%%%%%%%%%%%%%%%%%**$****%%%%%%%&&&&&&&&&%***$$$$****%%%%%%%%%%%%%%%%%%%%%%%%%%",
"%%%%%%%%%%%%%%%%%%%%%%%%***********%%%%%%%%%%%%***$$$$$****%%%%%%%%%%%%%%%%%%%%%%%%%",
"%%%%%%%%%%%%%%%%%%%%%%%%**********%%%%%%%%%%%%%***$$$$$*****%%%%%%%%%%%%%%%%%%%%%%%%",
"%%%%%%%%%%%%%%%%%%%%%%%%********%%%%%%%%%%%%%%%***$$***&&&&&%%%%%%%%%%%%%%%%%%%%%%%%",
"%%%%%%%%%%%%%%%%%%%%%%%%******%%%%%%%%%%%%%%%%%***$$**&&&&&&&&%%%%%%%%%%%%%%%%%%%%%%",
"%%%%%%%%%%%%%%%%%%%%%%%%*****%%%%%%%%%%%%%%%%%%***$$**&&&&&&&&&&&&&%%%%%%%%%%%%%%%%%",
"%%%%%%%%%%%%%%%%%%%%%%%%*****%%%%%%%%%%%%%%%%%%***$$**%&&&&&&&&&&&%%%%%%%%%%%%%%%%%%",
"%%%%%%%%%%%%%%%%%%%%%%%%******%%%%%%%%%%%%%%%%%***$$**%%&&&&&&&&%%%%%%%%%%%%%%%%%%%%",
"%%%%%%%%%%%%%%%%%%%%%%%%******%%%%%%%%%%%%%%%%%***$$**%%%%%%%%%%%%%%%%%%%%%%%%%%%%%*",
"%%%%%%%%%%%%%%%%%%%%%%%%******%%%%%%%%%%%%%%%%%***$$**%%%%%%%%%%%%%%%%%%%%%%%%%%%%**",
"%%%%%%%%%%%%%%%%%%%%%%%%******%%%%%%%%%%%%%%%%%***$$***%%%%%%%%%%%%%%%%%%%%%%%%%%%%%",
"%%%%%%%%%%%%%%%%%%%%%%%%******%%%%%%%%%%%%%%%%%***$$****%%%%%%%%%%%%%%%%%%%%%%%%%%%%",
"%%%%%%%%%%%%%%%%%%%%%%%%******%%%%%%%%%%%%%%%%%***$$*****%%%%%%%%%%%%%%%%%%%%%%%%%%%",
"*%%%%%%%%%%%%%%%%%%%%%%%******%%%%%%%%%%%%%%%%%***$$****&&&&%%%%%%%%%%%%%%%%%%%%%%%%",
"**%%%%%%%%%%%%%%%%%%%%%%*****%%%%%%%%%%%%%%%%%%***$$****&&&&&&&&%%%%%%%%%%%%%%%%%%%%",
"***%%%%%%%%%%%%%%%%%%%%******%%%%%%%%%%%%%%%%%%***$*****&&&&&&%%%%%%%%%%%%%%%%%%%%**",
"****%%%%%%%%%%%%%%%%%%******%%%%%%%%%%%%%%%%%%%***$*****%&&&&%%%%%%%%%%%%%%%%%%%%***",
"****%%%%%%%%%%%%%%%%%*******%%%%%%%%%%%%%%%%%%****$*****%%%%%%%%%%%%%%%%%%%%%%%*****",
"*****%%%%%%%%%%%%%%%********%%%%%%%%%%%%%%%%%%****$*****%%%%%%%%%%%%%%%%%%%%%%***%%%",
"******%%%%%%%%%%%%%*********%%%%%%%%%%%%%%%%%***********%%%%%%%%%%%%%%%%%%%%%%%%%%%%",
"********%%%%%%%%%%%*********%%%%%%%%%%%%%%%%*************%%%%%%%%%%%%%%%%%%%%%%%%%%%",
"**********%%%%%%%***********%%%%%%%%%%%%%%%%**************%%%%%%%%%%%%%%%***%%%%%%%%",
"**%%%*******%%%%%%%%%%*******%%%%%%%%%%%%%%%*%*************%%%%%%%%%%%*****%%%%%%%%*",
"**%%$$$*******%%%%%%%%********%%%%%%%%%%%%%*%%****$*********%%%%%%%*******%%%%%%****",
"***$$$$@@%%%%%%%%%%%%*****$****%%%%%%%%%**%%%%***$$***************%%%%%%********@$$$",
"***$$$##@@%%%@@@%%%%*****$$*************%%%%%%***$$**********%%%%%%%%%%%*******@@$$$"};
